src/images/pricing-section-container.svg

<svg width="199" height="111" fill="none" xmlns="http://www.w3.org/2000/svg"><path d="M173.959 60.3305c-2.112 12.6761-8.144 25.3523-18.701 32.2939-7.238 4.829-15.683 6.6399-24.129 8.4506-18.7 3.622-37.4 5.735-56.4017 6.64-15.0807.604-30.1615 3.32-43.7342-5.734-8.4452-5.433-14.7791-14.1855-17.4936-24.1454-1.8097-6.0362-2.1113-12.3743-1.8097-18.7123 0-7.5454.9048-15.0907 1.5081-22.636 25.6372-3.9235 53.3858-2.1127 79.3247-4.2254 26.2404-2.4145 52.1794-5.4326 78.1184-9.3561.603 0 1.81 0 2.111.6036.603.6036 3.318 24.145 1.207 36.8211Z" fill="#D9D9D9" stroke="#1B383C" stroke-width="4" stroke-miterlimit="10"/><path d="M196.278 10.8338c.604 1.2072.905 3.0181.604 4.2254-.905 2.1127-3.318 3.0181-5.429 3.6217-4.223.9054-9.049 1.5091-9.049 1.5091.302 2.1127-1.206 3.9235-3.318 3.9235L6.8643 39.506c-2.1113.3018-3.921-1.2073-3.921-3.32l-.9049-10.2616c-.3016-2.1127 1.2065-3.9235 3.3178-3.9235L27.3741 20.19c.6032-4.5272 5.7307-9.9598 9.0484-11.4689 4.2226-1.8109 9.0485-2.1127 13.5727-2.1127 27.1453-.3018 54.5928 1.8109 81.4358-3.6217 3.318-.6037 6.636-1.509 9.954-.6037 3.317.6037 6.333 3.6218 6.333 6.9417v.3018l29.257-2.7163c2.111-.3018 3.921 1.2073 3.921 3.32v.9054c3.016-.9054 11.461-3.32 12.668-2.7163 1.508.6036 2.413 1.509 2.714 2.4145Z" fill="#FF9820" stroke="#1B383C" stroke-width="4" stroke-miterlimit="10"/><path d="M104.286 42.2223c-2.715 1.8109-4.223 4.829-4.5246 8.1489-.3016 3.3199.3016 6.3381 1.5086 9.3562 1.206 3.9236 3.317 7.5453 6.032 10.8652 2.714 3.0182 6.635 5.4327 10.255 3.9236 2.111-.9054 3.619-3.0181 4.222-5.1308.604-2.1127.604-4.5272.302-6.9417-.905-6.9417-7.54-26.8613-17.795-20.2214ZM73.8231 45.2411c-3.6194 1.509-5.7307 5.7344-6.0323 9.658-.3016 3.9235 1.5081 7.8471 3.6194 11.1671 1.8097 3.0181 3.921 6.0362 6.9371 8.1489 3.0162 2.1127 6.9372 2.7163 10.255 1.5091 1.2064-.6037 2.4129-1.2073 3.3177-2.4145 1.2065-1.8109 1.5081-4.2254 1.2065-6.3381-.6032-8.4508-7.5404-26.5595-19.3034-21.7305Z" fill="#fff" stroke="#1B383C" stroke-width="4" stroke-miterlimit="10"/><path d="M76.2357 54.898c.9049 2.7163 2.7146 4.829 4.5243 7.2435 1.508 2.1127 3.3177 4.5272 6.3339 5.4327.6032.3018 1.2064.3018 2.1113 0 .9048-.3019 1.2064-1.5091 1.2064-2.1128.6033-4.2253 0-8.7525-1.8097-12.3743-.9048-2.1127-2.1113-4.2254-4.2226-5.7344-1.508-1.2073-6.0323-2.7163-8.1436-.9054-2.1113 1.8108-.6032 6.6398 0 8.4507ZM108.509 44.0338c-.905 1.5091-.604 3.32-.302 4.829 1.206 5.7345 4.222 11.4689 8.445 15.6943.603.6036 1.81 1.2072 2.413.6036.302-.3018.302-.6036.302-.9054 1.206-5.1308-.604-10.5635-2.112-15.6943-1.206-2.4145-5.73-10.2616-8.746-4.5272Z" fill="#1B383C" stroke="#1B383C" stroke-miterlimit="10"/><path d="M97.0469 85.0792c.6032 1.8109 1.2064 3.32 2.4129 4.829 1.2062 1.2073 3.0162 2.4145 4.8262 2.1127 1.809 0 3.317-1.2072 4.222-2.7163.905-1.509 1.207-3.3199.905-5.1308M23.453 58.2188c-.3016 8.1489-.3016 16.2978 3.3178 23.5413.9048 1.8109 2.1113 3.6217 3.6193 5.4326 3.0162 3.9236 6.9372 7.2435 11.4614 9.0544M132.638 13.5508c-14.478 2.7163-29.257 3.9236-44.0359 3.9236M62.3613 19.2842c.6033-.3018 1.2065-.3018 1.5081-.3018 3.0162 0 6.3339.3018 9.3501.3018" stroke="#1B383C" stroke-width="4" stroke-miterlimit="10"/></svg>

<svg width="199" height="111" viewBox="0 0 199 111" fill="none" xmlns="http://www.w3.org/2000/svg">
<path d="M173.959 60.3305C171.847 73.0066 165.815 85.6828 155.258 92.6244C148.02 97.4534 139.575 99.2643 131.129 101.075C112.429 104.697 93.729 106.81 74.7273 107.715C59.6466 108.319 44.5658 111.035 30.9931 101.981C22.5479 96.548 16.214 87.7955 13.4995 77.8356C11.6898 71.7994 11.3882 65.4613 11.6898 59.1233C11.6898 51.5779 12.5946 44.0326 13.1979 36.4873C38.8351 32.5638 66.5837 34.3746 92.5226 32.2619C118.763 29.8474 144.702 26.8293 170.641 22.9058C171.244 22.9058 172.451 22.9058 172.752 23.5094C173.355 24.113 176.07 47.6544 173.959 60.3305Z" fill="#D9D9D9" stroke="#1B383C" stroke-width="4" stroke-miterlimit="10"/>
<path d="M196.278 10.8338C196.882 12.041 197.183 13.8519 196.882 15.0592C195.977 17.1719 193.564 18.0773 191.453 18.6809C187.23 19.5863 182.404 20.19 182.404 20.19C182.706 22.3027 181.198 24.1135 179.086 24.1135L6.86427 39.506C4.75297 39.8078 2.94328 38.2987 2.94328 36.186L2.03843 25.9244C1.73682 23.8117 3.24489 22.0009 5.3562 22.0009L27.3741 20.19C27.9773 15.6628 33.1048 10.2302 36.4225 8.72111C40.6451 6.91024 45.471 6.60841 49.9952 6.60841C77.1405 6.3066 104.588 8.41929 131.431 2.98667C134.749 2.38305 138.067 1.47762 141.385 2.38305C144.702 2.98668 147.718 6.00479 147.718 9.32473C147.718 9.32473 147.718 9.32472 147.718 9.62654L176.975 6.91024C179.086 6.60843 180.896 8.11749 180.896 10.2302V11.1356C183.912 10.2302 192.357 7.81568 193.564 8.4193C195.072 9.02293 195.977 9.92835 196.278 10.8338Z" fill="#FF9820" stroke="#1B383C" stroke-width="4" stroke-miterlimit="10"/>
<path d="M104.286 42.2223C101.571 44.0332 100.063 47.0513 99.7614 50.3712C99.4598 53.6911 100.063 56.7093 101.27 59.7274C102.476 63.651 104.587 67.2727 107.302 70.5926C110.016 73.6108 113.937 76.0253 117.557 74.5162C119.668 73.6108 121.176 71.4981 121.779 69.3854C122.383 67.2727 122.383 64.8582 122.081 62.4437C121.176 55.502 114.541 35.5824 104.286 42.2223Z" fill="white" stroke="#1B383C" stroke-width="4" stroke-miterlimit="10"/>
<path d="M73.8231 45.2411C70.2037 46.7501 68.0924 50.9755 67.7908 54.8991C67.4892 58.8226 69.2989 62.7462 71.4102 66.0662C73.2199 69.0843 75.3312 72.1024 78.3473 74.2151C81.3635 76.3278 85.2845 76.9314 88.6023 75.7242C89.8087 75.1205 91.0152 74.5169 91.92 73.3097C93.1265 71.4988 93.4281 69.0843 93.1265 66.9716C92.5233 58.5208 85.5861 40.4121 73.8231 45.2411Z" fill="white" stroke="#1B383C" stroke-width="4" stroke-miterlimit="10"/>
<path d="M76.2357 54.898C77.1406 57.6143 78.9503 59.727 80.76 62.1415C82.268 64.2542 84.0777 66.6687 87.0939 67.5742C87.6971 67.876 88.3003 67.876 89.2052 67.5742C90.11 67.2723 90.4116 66.0651 90.4116 65.4614C91.0149 61.2361 90.4116 56.7089 88.6019 53.0871C87.6971 50.9744 86.4906 48.8617 84.3793 47.3527C82.8713 46.1454 78.347 44.6364 76.2357 46.4473C74.1244 48.2581 75.6325 53.0871 76.2357 54.898Z" fill="#1B383C" stroke="#1B383C" stroke-miterlimit="10"/>
<path d="M108.509 44.0338C107.604 45.5429 107.905 47.3538 108.207 48.8628C109.413 54.5973 112.429 60.3317 116.652 64.5571C117.255 65.1607 118.462 65.7643 119.065 65.1607C119.367 64.8589 119.367 64.5571 119.367 64.2553C120.573 59.1245 118.763 53.6918 117.255 48.561C116.049 46.1465 111.525 38.2994 108.509 44.0338Z" fill="#1B383C" stroke="#1B383C" stroke-miterlimit="10"/>
<path d="M97.0469 85.0792C97.6501 86.8901 98.2533 88.3992 99.4598 89.9082C100.666 91.1155 102.476 92.3227 104.286 92.0209C106.095 92.0209 107.603 90.8137 108.508 89.3046C109.413 87.7956 109.715 85.9847 109.413 84.1738" stroke="#1B383C" stroke-width="4" stroke-miterlimit="10"/>
<path d="M23.453 58.2188C23.1514 66.3677 23.1514 74.5166 26.7708 81.7601C27.6756 83.571 28.8821 85.3818 30.3901 87.1927C33.4063 91.1163 37.3273 94.4362 41.8515 96.2471" stroke="#1B383C" stroke-width="4" stroke-miterlimit="10"/>
<path d="M132.638 13.5508C118.16 16.2671 103.381 17.4744 88.6021 17.4744" stroke="#1B383C" stroke-width="4" stroke-miterlimit="10"/>
<path d="M62.3613 19.2842C62.9646 18.9824 63.5678 18.9824 63.8694 18.9824C66.8856 18.9824 70.2033 19.2842 73.2195 19.2842" stroke="#1B383C" stroke-width="4" stroke-miterlimit="10"/>
</svg>
